src/images/icons/programs.svg

<svg viewBox="0 0 100 100" xmlns="http://www.w3.org/2000/svg" xmlns:xlink="http://www.w3.org/1999/xlink"><title>programs</title><desc>Created using Figma</desc><g transform="matrix(2 0 0 2 -400 -100)"><clipPath id="a" clip-rule="evenodd"><path d="M0 0h1398v646H0V0z" fill="#FFF"/></clipPath><g clip-path="url(#a)"><path d="M0 0h1398v646H0V0z" fill="#FFF"/><g transform="translate(204 63)"><use xlink:href="#path0_fill" fill="#FFF"/><use xlink:href="#path1_stroke"/></g><g transform="translate(204 58)"><use xlink:href="#path2_fill" fill="#FFF"/><use xlink:href="#path3_stroke"/></g><use xlink:href="#path4_stroke" transform="translate(213 90)"/><use xlink:href="#path5_stroke" transform="rotate(90 70.5 154.5)"/></g></g><defs><path id="path0_fill" d="M0 0h42v21H0V0z"/><path id="path1_stroke" d="M0 0v-1h-1v1h1zm42 0h1v-1h-1v1zm0 21v1h1v-1h-1zM0 21h-1v1h1v-1zM0 1h42v-2H0v2zm41-1v21h2V0h-2zm1 20H0v2h42v-2zM1 21V0h-2v21h2z"/><path id="path2_fill" d="M0 0h42v23H0V0z"/><path id="path3_stroke" d="M0 0v-1h-1v1h1zm42 0h1v-1h-1v1zm0 23v1h1v-1h-1zM0 23h-1v1h1v-1zM0 1h42v-2H0v2zm41-1v23h2V0h-2zm1 22H0v2h42v-2zM1 23V0h-2v23h2z"/><path id="path4_stroke" d="M24 1h1v-2h-1v2zM0-1h-1v2h1v-2zm24 0H0v2h24v-2z"/><path id="path5_stroke" d="M6 1h1v-2H6v2zM0-1h-1v2h1v-2zm6 0H0v2h6v-2z"/></defs></svg>

<svg width="100" height="100" viewBox="0 0 100 100" version="1.1" xmlns="http://www.w3.org/2000/svg" xmlns:xlink="http://www.w3.org/1999/xlink"><title>programs</title><desc>Created using Figma</desc><g id="Canvas" transform="matrix(2 0 0 2 -400 -100)"><clipPath id="clip-0" clip-rule="evenodd"><path d="M 0 0L 1398 0L 1398 646L 0 646L 0 0Z" fill="#FFF"/></clipPath><g id="Frame" clip-path="url(#clip-0)"><path d="M 0 0L 1398 0L 1398 646L 0 646L 0 0Z" fill="#FFF"/><g id="Rectangle"><use xlink:href="#path0_fill" transform="translate(204 63)" fill="#FFF"/><use xlink:href="#path1_stroke" transform="translate(204 63)"/></g><g id="Rectangle"><use xlink:href="#path2_fill" transform="translate(204 58)" fill="#FFF"/><use xlink:href="#path3_stroke" transform="translate(204 58)"/></g><g id="Rectangle"><use xlink:href="#path4_stroke" transform="translate(213 90)"/></g><g id="Rectangle"><use xlink:href="#path5_stroke" transform="matrix(6.12323e-17 1 -1 6.12323e-17 225 84)"/></g></g></g><defs><path id="path0_fill" d="M 0 0L 42 0L 42 21L 0 21L 0 0Z"/><path id="path1_stroke" d="M 0 0L 0 -1L -1 -1L -1 0L 0 0ZM 42 0L 43 0L 43 -1L 42 -1L 42 0ZM 42 21L 42 22L 43 22L 43 21L 42 21ZM 0 21L -1 21L -1 22L 0 22L 0 21ZM 0 1L 42 1L 42 -1L 0 -1L 0 1ZM 41 0L 41 21L 43 21L 43 0L 41 0ZM 42 20L 0 20L 0 22L 42 22L 42 20ZM 1 21L 1 0L -1 0L -1 21L 1 21Z"/><path id="path2_fill" d="M 0 0L 42 0L 42 23L 0 23L 0 0Z"/><path id="path3_stroke" d="M 0 0L 0 -1L -1 -1L -1 0L 0 0ZM 42 0L 43 0L 43 -1L 42 -1L 42 0ZM 42 23L 42 24L 43 24L 43 23L 42 23ZM 0 23L -1 23L -1 24L 0 24L 0 23ZM 0 1L 42 1L 42 -1L 0 -1L 0 1ZM 41 0L 41 23L 43 23L 43 0L 41 0ZM 42 22L 0 22L 0 24L 42 24L 42 22ZM 1 23L 1 0L -1 0L -1 23L 1 23Z"/><path id="path4_stroke" d="M 24 1L 25 1L 25 -1L 24 -1L 24 1ZM 0 -1L -1 -1L -1 1L 0 1L 0 -1ZM 24 -1L 0 -1L 0 1L 24 1L 24 -1Z"/><path id="path5_stroke" d="M 6 1L 7 1L 7 -1L 6 -1L 6 1ZM 0 -1L -1 -1L -1 1L 0 1L 0 -1ZM 6 -1L 0 -1L 0 1L 6 1L 6 -1Z"/></defs></svg>
